X: 1450
T: the Roving Bachelor
N: J.O'Neill
B: O'Neill's 1850 #1450
Z: Bob Safranek, rjs@gsp.org
Z: Compacted via repeats and multiple endings [JC]
M: C|
L: 1/8
K: G
(GA) !segno! |:\
   B2{c}BA B2ge | d2ge dBGA |\
[1 B2{c}BA B2ge | dBAB GFED :|\
[2 B2{c}BA B2ge | fe^df He2 |]
|: (ef) |\
   gfed eBBd | gfed e2(ef) |\
[1 gfed eBBA | Be^df e2 :|\
[2 gbag fage | d2(ge) dBG!segno!A |]
